[Settings]
Encoding=iso-8859-1
Title=
Source=
Memo=
[Channel1]
t80e2.f8g8a2g2>c4c8c8<b8a8g8a4.&g2r16>c4.c8c8e8d8c8<a4.g2a2b8>c8e8d8cr4t85<gg8gg8gg8gt90>fe8f8e8cr1rt1601@1 ed8ce8 gg8er8 aa8>c<a8 g2raa8ga8 >cc8d<r8 ee8de8 c2r
[Channel2]

[Channel3]

[3MLE EXTENSION]
/* DO NOT EDIT!! DATA VOID IF "3MLE EXTENSION" IS EDITED. */
c=1593355258
d=6QAAAGfOMQ4BAAAAQlpoOTFBWSZTWXGrE5oAAEd/gP/U0ARACDgAQoAEAHwM0gAAAKAAdQ0TU2poAAA2oAYo1E9Q0xqYI0wHqjld7O1bGXiQmwFMpJQ+sBUgOVagCb8I
d=AHGcOFoYj45or78iteIDMyRwpQBNY8krwMjBPI4GG6nMd3LmNSHmmAmVcUzOYguU5AVFH8XckU4UJBxqxOaA
