[Settings]
Encoding=iso-8859-1
Title=
Source=
Memo=
[Channel1]
t90aa8>e.d8c8<a8g.aeg.a8>c8d8er8e8>ag8e8d8cd8<a2gc<aa8>e.d8c8<a8g.aeg.a8>c8d8er8e8>ag8e8d8cd8<a2
[Channel2]
rc2c2c2c2c2c2c2c2c2c2c2c2c2c2c2c2c2c2c2c2
[Channel3]

[3MLE EXTENSION]
/* DO NOT EDIT!! DATA VOID IF "3MLE EXTENSION" IS EDITED. */
c=3141411888
d=6QAAADXWXsIBAAAAQlpoOTFBWSZTWc+cy1IAAEl/gP/U0ARACDgATIAEAHwM0gAAAKAAaEZKaDIA0GgAAxTUymmIGjATaah+qfA+F1k1bEbPBz40ErWkrqwVFBmbiEAx
d=yUBIPVPiGiE/sOJy/O0qX1jFFoC5gG04mZROCBiVWhRcyqOXLC1CyUB3KvKqqcsC5TkBRj/F3JFOFCQz5zLUgA==
