[Settings]
Encoding=iso-8859-1
Title=
Source=
Memo=
[Channel1]
t120v6r1dddddddddddddddddddddddddddddddddddddddddddddddd
[Channel2]
r8g8r8g8r8g8r8g8r8g8r8g8r8g8r8g8r8g8r8g8r8g8r8g8r8g8r8g8r8g8r8g8r8g8r8g8r8g8r8g8r8g8r8g8r8g8r8g8
//M6
r8g8r8g8r8g8r8g8r8g8r8g8r8g8r8g8r8g8r8g8r8g8r8g8r8g8r8g8r8g8r8g8r8g8r8g8r8g8r8g8r8g8r8g8r8g8r8g8r8g8r8g8r8g8r8g8
[Channel3]
r1o5c8c8c8c8c8c8c8c8e8fgf8e8d8d8de8f.e8fgf8e8d8d8de8f.e
//M6
r1r1cd8e8f8e8f8e8f8e8f8e8dc<v14agacagac>ccccde8f8g4g8e
[Channel4]
o6e8e8fgf8e8d8d8de8f.e8c8c8c8c8c8c8c8c8c8c8c8c8c8c8e8fgf8e8d8d8de8f.e
//M6
cd8e8f8e8f8e8f8e8f8e8dcfgf8e8d8d8de8f.e<v14agacagacde8f8g4g8e8cccc
[Channel5]
r1r1r1r1c
//M6
1e1g1d1c8c8c8c8c8c8c8c8e8e8e8e8e8e8e8e8v6o5a16g16f16a16g16f16a16g16f16a16g16f16a16g16f16
a16g16f16a16g16f16a16g16f16a16g16f16a16g16f16r8<g2e2
[3MLE EXTENSION]
/* DO NOT EDIT!! DATA VOID IF "3MLE EXTENSION" IS EDITED. */
c=3797241841
d=RwEAAK5rLS4BAAAAQlpoOTFBWSZTWWwVD5QAAGR/gP/U0ARACD4AfIAEAHwM0gAAAKAAiQxKZpTxQaGgGQAeoJTU1NJ6gABk00HpqHqWKQ+sKXtTUwnj0pVYOANFaxZk
d=ru0RCDEDFZLBAMXX9sLADvtgfEGKJ/YZTt/Ve2nQk3VM6gPAZ8Mtk2IkUEZwHUkxYwpIopMKlWKsOGpE3nOAvIWwhO7vYiINiFYkxldKX8XckU4UJBsFQ+UA
