[Settings]
Encoding=iso-8859-1
Title=
Source=
Memo=
[Channel1]
t90v10aa8>e.d8c8<a8g.aeg.a8>c8d8er8e8>ag8e8d8cd8<a2gc<aa8>e.d8c8<a8g.aeg.a8>c8d8er8e8>ag8e8d8cd8<a2
[Channel2]
v8rc2c2c2c2c2c2c2c2c2c2c2c2c2c2c2c2c2c2c2c2c2c2c2c2c2c2c2c2c2c2
[Channel3]
r1r1r1r1r1ro3aa8>e.d8c8<a8g.aeg.a8>c8d8er8e8>ag8e8d8cd8<a2gc<aa8>e.d8c8<a8g.aeg.a8>c8d8er8e8>ag8e8d8cd8<a2
[Channel4]
o4r1r1r1r1r1rr1r1r1r1rrraaaaaaaaaaaaaaaaaaaa
[3MLE EXTENSION]
/* DO NOT EDIT!! DATA VOID IF "3MLE EXTENSION" IS EDITED. */
c=3242240682
d=GAEAAI0PNH0BAAAAQlpoOTFBWSZTWTBFo/4AAFV/gP/U0ARACDwATIAEAHwM0gAAAKAAhBKaSaT01ANND0mh6RpoJRU9NqR6EZMRhBg9TUEXcZcLGlOlxfFjdOaST5WB
d=tQ2Oj3pgDt3pBmbHB/qPCauj51t/awt+YEiiaDmUGIPvzqESKD3P0RJwXqprtIIbODhAqVJNKBYC2gsYxcJhKAVwRWZuRdyRThQkDBFo/4A=
