[Settings]
Encoding=iso-8859-1
Title=
Source=
Memo=
[Channel1]
t80e2.f8g8a2g2>c4c8c8<b8a8g8a4.&g2r16>c4.c8c8e8d8c8<a4.g2a2b8>c8e8d8cr4t85<gg8gg8gg8gt90>fe8f8e8cr1rt1601@1 ed8ce8 gg8er8 aa8>c<a8 g2raa8ga8 >cc8d<r8 ee8de8 c2r
[Channel2]

[Channel3]

[3MLE EXTENSION]
/* DO NOT EDIT!! DATA VOID IF "3MLE EXTENSION" IS EDITED. */
c=3610832550
d=6QAAAOcHL90BAAAAQlpoOTFBWSZTWVLoCIYAAEh/gP/U0ARACDgAQIAEAHwM0gAAAKAAaDIpoekNGgAAAxTQpphGgYGmo3qnxTyiLWSl9Lxc4iZmRF1cBBAYoAThioBy
d=tUd5wFP0OKT5dp18CwfEWgL2AbPihnID2gZFWIVXUqrlzdEWzgMSvJUYuWBcpyApS/i7kinChIKXQEQw
